X: 827
T: the Tailor's Thimble
B: O'Neill's 1850 #827
O: J.O'Neill
Z: Dan G. Petersen, dangp@post6.tele.dk
M: 6/8
L: 1/8
K: D
D |\
DFF FED | FAA A2d/c/ | Bdd Add | Bdd AFE |\
DFF FED | FAA A2c | (B/c/dB) AGF | EFE [1 E2 :|2 D2 |]
|: e |\
fgf fed | faa a2f | efe edB | def g2g |\
fgf efe | ded cBA | (B/c/dB) AGF | EFE [1 E2 :|2 D2 |]
